portal-web/docroot/html/themes/_unstyled/images/common/news.svg

<svg xmlns="http://www.w3.org/2000/svg" viewBox="0 0 512 512" enable-background="new 0 0 512 512">
    <path id="newspaper-icon" d="M404.334 211.666H109.667v20h294.667v-20zM198.5 249.084h-88.833v20H198.5v-20zm0 38h-88.833v20H198.5v-20zm205.834-38H315.5v20h88.834v-20zm0 38H315.5v20h88.834v-20zm0 38H109.667v20h294.667v-20zm-108.668-76h-78.332v58h78.332v-58zM432 124v247H80V124h352m30-30H50v324h412V94zm-201.06 97.5l-10.476-44.134h11.48l5.467 30.58 6.124-30.58h11.19l5.42 30.014 5.657-30.014h10.976L295.383 191.5h-11.357l-5.42-29.193-6.184 29.192H260.94zm-13.184-9H230.03v-9.24h15.87v-8.935h-15.87v-7.96h16.83v-9h-27.622V191.5h28.518v-9zm74.058.64c-3.412 0-7.37-.984-10.586-2.633l-.562-.288-2.23 9.048.337.186c2.342 1.294 7.24 2.687 12.465 2.687 13.217 0 17.906-7.474 17.906-13.874 0-6.188-3.662-10.425-11.52-13.33-5.76-2.186-7.677-3.303-7.677-5.613 0-2.223 2.266-3.66 5.77-3.66 3.09 0 6.052.673 8.808 2l.54.26 2.448-8.862-.39-.176c-3.274-1.473-7.048-2.22-11.214-2.22-10.062 0-16.82 5.422-16.82 13.49 0 5.952 4.097 10.396 12.17 13.207 5.16 1.848 6.9 3.264 6.9 5.61.002 2.65-2.312 4.17-6.346 4.17zm-136.777-21.82l15.717 30.18h11.033v-44.134h-9.96v27.052l-14.565-27.052h-12.184V191.5h9.96v-30.18z"/>
</svg>

<?xml version="1.0" encoding="utf-8"?>
<!-- License Agreement at http://iconmonstr.com/license/ -->
<!DOCTYPE svg PUBLIC "-//W3C//DTD SVG 1.1//EN" "http://www.w3.org/Graphics/SVG/1.1/DTD/svg11.dtd">
<svg version="1.1" xmlns="http://www.w3.org/2000/svg" xlink="http://www.w3.org/1999/xlink" x="0px" y="0px" viewBox="0 0 512 512" enable-background="new 0 0 512 512" space="preserve"> <path id="newspaper-icon" d="M404.334,211.666H109.667v20h294.667V211.666z M198.5,249.084h-88.833v20H198.5V249.084z
M198.5,287.084h-88.833v20H198.5V287.084z M404.334,249.084H315.5v20h88.834V249.084z M404.334,287.084H315.5v20h88.834V287.084z
M404.334,325.084H109.667v20h294.667V325.084z M295.666,249.084h-78.332v58h78.332V249.084z M432,124v247H80V124H432 M462,94H50
v324h412V94z M260.939,191.499l-10.475-44.133h11.48l5.467,30.58l6.123-30.58h11.189l5.42,30.014l5.658-30.014h10.975
l-11.393,44.133h-11.357l-5.42-29.192l-6.184,29.192H260.939z M247.756,182.5h-17.727v-9.239H245.9v-8.936h-15.871v-7.959h16.83v-9
h-27.621v44.133h28.518V182.5z M321.814,183.14c-3.412,0-7.369-0.984-10.586-2.633l-0.562-0.288l-2.229,9.049l0.336,0.186
c2.342,1.294,7.24,2.687,12.465,2.687c13.217,0,17.906-7.475,17.906-13.875c0-6.188-3.662-10.425-11.521-13.331
c-5.76-2.185-7.676-3.302-7.676-5.612c0-2.223,2.266-3.659,5.771-3.659c3.088,0,6.051,0.672,8.807,1.998l0.539,0.26l2.449-8.861
l-0.391-0.177c-3.273-1.473-7.047-2.22-11.213-2.22c-10.061,0-16.818,5.422-16.818,13.491c0,5.951,4.096,10.395,12.17,13.206
c5.158,1.847,6.9,3.263,6.9,5.608C328.162,181.619,325.848,183.14,321.814,183.14z M185.037,161.32l15.717,30.179h11.033v-44.133
h-9.959v27.052l-14.566-27.052h-12.184v44.133h9.959V161.32z"></path> </svg>
